src/32x32/places/folder-gruvbox-original-purple-network.svg

<?xml version="1.0" encoding="UTF-8"?>
<svg width="32" height="32" version="1" xmlns="http://www.w3.org/2000/svg">
 <rect x="2" y="11" width="28" height="18" rx="1.4" ry="1.4" opacity=".2"/>
 <path d="m2 22.6c0 0.776 0.6244 1.4 1.4 1.4h25.2c0.776 0 1.4-0.624 1.4-1.4v-15.2c0-0.7756-0.624-1.4-1.4-1.4h-12.6c-2.1 0-2.8-3-4.9-3h-7.7c-0.7756 0-1.4 0.6244-1.4 1.4" fill="#8f3f71"/>
 <rect x="2" y="9" width="28" height="18" rx="1.4" ry="1.4" opacity=".2"/>
 <rect x="4" y="8" width="24" height="11" rx="1.4" ry="1.4" fill="#E1D4B6"/>
 <rect x="2" y="10" width="28" height="18" rx="1.4" ry="1.4" fill="#d3869b"/>
 <path d="m3.4004 3c-0.7756 0-1.4004 0.6248-1.4004 1.4004v1c0-0.7756 0.6248-1.4004 1.4004-1.4004h7.6996c2.1 0 2.8 3 4.9 3h12.6c0.775 0 1.4 0.6248 1.4 1.4004v-1c0-0.7756-0.625-1.4004-1.4-1.4004h-12.6c-2.1 0-2.8-3-4.9-3z" fill="#E1D4B6" opacity=".1"/>
 <path d="m16 13c-3.3132 0-6 2.6868-6 6s2.6868 6 6 6 6-2.6868 6-6-2.6868-6-6-6zm-0.4284 1.6608c0.0576-6e-3 0.1296 0.0036 0.1872 0 0.0072 0.0276-0.042 0.1248-0.1068 0.2676-0.4164 0.9096-0.4404 1.9752-0.054 2.5452 0.0696 0.1032 0.1344 0.2016 0.1344 0.2136 0 0.0132-0.0756 0.0276-0.1608 0.0276-0.2004 0-0.39-0.1224-0.7764-0.4296-0.1728-0.1356-0.396-0.2496-0.4824-0.2676-0.1368-0.0264-0.1728-0.0144-0.348 0.1608-0.1644 0.1644-0.2148 0.252-0.2148 0.402 0 0.5676 0.6744 1.02 1.9284 1.2852 1.7028 0.3612 2.1228 0.6852 2.1696 1.5804 0.0588 1.1232-0.5388 1.9704-1.848 2.6256-0.156 0.078-0.2556 0.108-0.3216 0.1332-0.0288-0.0024-0.0516 0.0036-0.0804 0-0.0108-0.0336-0.0264-0.1152-0.0264-0.2676 0-0.5964-0.2352-1.2096-0.5892-1.5528-0.0948-0.0924-0.3612-0.288-0.5892-0.4284-0.228-0.1416-0.4584-0.306-0.5088-0.3756-0.0852-0.1164-0.0924-0.1872-0.0276-0.402 0.1188-0.3912 0.2604-0.6096 0.5364-0.8568 0.144-0.1296 0.2892-0.2388 0.3216-0.2412 0.0312-0.0024-0.1848-0.0672-0.5088-0.1344-0.3252-0.066-0.7992-0.2052-1.0452-0.294-0.4488-0.162-1.0548-0.504-1.2852-0.75-0.0096-0.0108-0.0192-0.018-0.0276-0.0264 0.3312-1.3188 1.26-2.4 2.4912-2.9196 0.258-0.1092 0.5232-0.1848 0.804-0.2412 0.1392-0.0288 0.2844-0.0396 0.4284-0.054zm4.0176 2.0088c0.1008 0.0624 0.4812 0.8844 0.5892 1.2852 0.1404 0.5184 0.1296 1.4148 0 1.9284-0.0492 0.1968-0.1128 0.3792-0.1332 0.402-0.0216 0.0228-0.0984-0.108-0.1884-0.2676s-0.3768-0.498-0.6156-0.75c-0.69-0.7272-0.798-1.1064-0.5088-1.6872 0.1452-0.2928 0.7788-0.9588 0.8568-0.9108z" fill="#393534"/>
</svg>

<svg xmlns="http://www.w3.org/2000/svg" width="32" height="32" version="1">
 <rect style="opacity:0.2" width="28" height="18" x="2" y="11" rx="1.4" ry="1.4"/>
 <path style="fill:#8f3f71" d="M 2,22.6 C 2,23.376 2.6244,24 3.4,24 H 28.6 C 29.376,24 30,23.376 30,22.6 V 7.4 C 30,6.6244 29.376,6 28.6,6 H 16 C 13.9,6 13.2,3 11.1,3 H 3.4 C 2.6244,3 2,3.6244 2,4.4"/>
 <rect style="opacity:0.2" width="28" height="18" x="2" y="9" rx="1.4" ry="1.4"/>
 <rect style="fill:#E1D4B6" width="24" height="11" x="4" y="8" rx="1.4" ry="1.4"/>
 <rect style="fill:#d3869b" width="28" height="18" x="2" y="10" rx="1.4" ry="1.4"/>
 <path style="opacity:0.1;fill:#E1D4B6" d="M 3.4004,3 C 2.6248,3 2,3.6248 2,4.4004 V 5.4004 C 2,4.6248 2.6248,4 3.4004,4 H 11.1 C 13.2,4 13.9,7 16,7 H 28.6 C 29.375,7 30,7.6248 30,8.4004 V 7.4004 C 30,6.6248 29.375,6 28.6,6 H 16 C 13.9,6 13.2,3 11.1,3 Z"/>
 <path style="fill:#393534" d="m 16,13 c -3.3132,0 -6,2.6868 -6,6 0,3.3132 2.6868,6 6,6 3.3132,0 6,-2.6868 6,-6 0,-3.3132 -2.6868,-6 -6,-6 z m -0.4284,1.6608 c 0.0576,-0.006 0.1296,0.0036 0.1872,0 0.0072,0.0276 -0.042,0.1248 -0.1068,0.2676 -0.4164,0.9096 -0.4404,1.9752 -0.054,2.5452 0.0696,0.1032 0.1344,0.2016 0.1344,0.2136 0,0.0132 -0.0756,0.0276 -0.1608,0.0276 -0.2004,0 -0.39,-0.1224 -0.7764,-0.4296 -0.1728,-0.1356 -0.396,-0.2496 -0.4824,-0.2676 -0.1368,-0.0264 -0.1728,-0.0144 -0.348,0.1608 -0.1644,0.1644 -0.2148,0.252 -0.2148,0.402 0,0.5676 0.6744,1.02 1.9284,1.2852 1.7028,0.3612 2.1228,0.6852 2.1696,1.5804 0.0588,1.1232 -0.5388,1.9704 -1.848,2.6256 -0.156,0.078 -0.2556,0.108 -0.3216,0.1332 -0.0288,-0.0024 -0.0516,0.0036 -0.0804,0 -0.0108,-0.0336 -0.0264,-0.1152 -0.0264,-0.2676 0,-0.5964 -0.2352,-1.2096 -0.5892,-1.5528 -0.0948,-0.0924 -0.3612,-0.288 -0.5892,-0.4284 -0.228,-0.1416 -0.4584,-0.306 -0.5088,-0.3756 -0.0852,-0.1164 -0.0924,-0.1872 -0.0276,-0.402 0.1188,-0.3912 0.2604,-0.6096 0.5364,-0.8568 0.144,-0.1296 0.2892,-0.2388 0.3216,-0.2412 C 14.746,19.078 14.53,19.0132 14.206,18.946 13.8808,18.88 13.4068,18.7408 13.1608,18.652 12.712,18.49 12.106,18.148 11.8756,17.902 11.866,17.8912 11.8564,17.884 11.848,17.8756 c 0.3312,-1.3188 1.26,-2.4 2.4912,-2.9196 0.258,-0.1092 0.5232,-0.1848 0.804,-0.2412 0.1392,-0.0288 0.2844,-0.0396 0.4284,-0.054 z m 4.0176,2.0088 c 0.1008,0.0624 0.4812,0.8844 0.5892,1.2852 0.1404,0.5184 0.1296,1.4148 0,1.9284 -0.0492,0.1968 -0.1128,0.3792 -0.1332,0.402 -0.0216,0.0228 -0.0984,-0.108 -0.1884,-0.2676 -0.09,-0.1596 -0.3768,-0.498 -0.6156,-0.75 -0.69,-0.7272 -0.798,-1.1064 -0.5088,-1.6872 0.1452,-0.2928 0.7788,-0.9588 0.8568,-0.9108 z"/>
</svg>
